X: 1
T: Miss Girdle
M: 4/4
L: 1/8
R: reel
K: Dmaj
d2 dB cABG|d2 dB cdec|d2 dB cABG|gfed cdec:|
d2 fd Adfd|d2 fd cdec|d2 fd Adfd|gfed cdec|
d2 fd Adfd|d2 fd cdef|afge fdef|gfed cdec||
